X:247
T:Sweets of May
M:6/8
L:1/8
K:G
d2 c | BAG AGF | G2 G G2 A | BcB GAB | c3 d2 c | 
BAG AGF | G2G G2 A | BdB cAF |1 G3 :|2 G3 G3 || 
ABA A2 G | E2 F G3 | ABA c2 d | e2 d c2B | 
ABA A2 G | E2 F G3 | A2 A BAG |1 A3 A3 :|2 A3 ABc || 
d3 d3 | D3 D3 | c3 c3 | D3 D3 | 
G2 D G2 A | B2 G B2c | ded cBA |1 G3 GBc :|2 G3 || 

